packages/ui-icons/svg/Solid/text-direction-rtl.svg

<svg viewBox="0 0 1920 1920" version="1.1" xmlns="http://www.w3.org/2000/svg">
    <path d="M822.455512,787.785569 L855.793458,787.785569 L855.793458,1235.00525 L1024.59318,1235.00525 L1024.59318,168.889606 L1221.24486,168.889606 L1221.24486,1235.00525 L1390.04459,1235.00525 L1390.04459,168.889606 L1561.37631,168.889606 L1561.37631,0 L822.455512,0 C605.379066,0 428.730154,176.658528 428.730154,393.850562 C428.730154,611.127041 605.379066,787.785569 822.455512,787.785569 M1771.984,1438.17535 L523.26841,1438.17535 L716.918136,1244.58434 L597.502212,1125.20462 L199.984,1522.60231 L597.502212,1920 L716.918136,1800.62028 L523.26841,1607.02927 L1771.984,1607.02927 L1771.984,1438.17535 Z" stroke="none" stroke-width="1" fill-rule="evenodd"/>
</svg>

<svg viewBox="0 0 1920 1920" xmlns="http://www.w3.org/2000/svg">
    <path d="M822.456 787.786h33.337v447.22h168.8V168.89h196.652v1066.115h168.8V168.89h171.331V0h-738.92C605.379 0 428.73 176.659 428.73 393.85c0 217.277 176.65 393.936 393.726 393.936m949.528 650.39H523.268l193.65-193.592-119.416-119.38-397.518 397.398L597.502 1920l119.416-119.38-193.65-193.59h1248.716v-168.855Z" fill-rule="evenodd"/>
</svg>
